Obsidian-SemiLight/actions/24s/quickopen-file.svg

<svg viewBox="0 0 24 24" xmlns="http://www.w3.org/2000/svg"><path d="m9 4-4 7h2v5l4-7h-2zm1 0v1h8v10h-4v.998047 3h-8v-2.998047h-1v4h1 8 1v-.011719l.007812.011719 3.992188-3.992188v-.011718-.996094-10-1z" fill="#4d4d4d"/></svg>

<svg xmlns="http://www.w3.org/2000/svg" viewBox="0 0 24 24">
  <defs id="defs3051">
    <style type="text/css" id="current-color-scheme">
      .ColorScheme-Text {
        color:#4d4d4d;
      }
      </style>
  </defs>
 <path style="fill:currentColor;fill-opacity:1;stroke:none" 
     d="M 9 4 L 5 11 L 7 11 L 7 16 L 11 9 L 9 9 L 9 4 z M 10 4 L 10 5 L 18 5 L 18 15 L 14 15 L 14 15.998047 L 14 18.998047 L 6 18.998047 L 6 16 L 5 16 L 5 20 L 6 20 L 14 20 L 15 20 L 15 19.988281 L 15.007812 20 L 19 16.007812 L 19 15.996094 L 19 15 L 19 5 L 19 4 L 10 4 z "
     class="ColorScheme-Text"
     />
</svg>
